Sweet-Rainbow/icons/postman.svg

<?xml version="1.0" encoding="UTF-8" standalone="no"?>
<!-- Generator: Gravit.io -->

<svg
   xmlns:dc="http://purl.org/dc/elements/1.1/"
   xmlns:cc="http://creativecommons.org/ns#"
   xmlns:rdf="http://www.w3.org/1999/02/22-rdf-syntax-ns#"
   xmlns:svg="http://www.w3.org/2000/svg"
   xmlns="http://www.w3.org/2000/svg"
   xmlns:sodipodi="http://sodipodi.sourceforge.net/DTD/sodipodi-0.dtd"
   xmlns:inkscape="http://www.inkscape.org/namespaces/inkscape"
   style="isolation:isolate"
   viewBox="0 0 36 36"
   width="48"
   height="48"
   version="1.1"
   id="svg9"
   sodipodi:docname="postman.svg"
   inkscape:version="0.92.4 (5da689c313, 2019-01-14)">
  <metadata
     id="metadata15">
    <rdf:RDF>
      <cc:Work
         rdf:about="">
        <dc:format>image/svg+xml</dc:format>
        <dc:type
           rdf:resource="http://purl.org/dc/dcmitype/StillImage" />
        <dc:title></dc:title>
      </cc:Work>
    </rdf:RDF>
  </metadata>
  <defs
     id="defs13" />
  <sodipodi:namedview
     pagecolor="#ffffff"
     bordercolor="#666666"
     borderopacity="1"
     objecttolerance="10"
     gridtolerance="10"
     guidetolerance="10"
     inkscape:pageopacity="0"
     inkscape:pageshadow="2"
     inkscape:window-width="640"
     inkscape:window-height="480"
     id="namedview11"
     showgrid="false"
     inkscape:zoom="29.365243"
     inkscape:cx="25.325443"
     inkscape:cy="32"
     inkscape:current-layer="svg9"
     units="px" />
  <linearGradient
     id="_lgradient_4"
     x1="0"
     y1="0.5"
     x2="1"
     y2="0.5"
     gradientTransform="scale(48)"
     gradientUnits="userSpaceOnUse">
    <stop
       offset="0%"
       stop-opacity="1"
       style="stop-color:rgb(255,224,49)"
       id="stop2" />
    <stop
       offset="98.69565217391305%"
       stop-opacity="1"
       style="stop-color:rgb(252,82,82)"
       id="stop4" />
  </linearGradient>
  <g
     id="g826"
     transform="scale(0.75)">
    <path
       id="path7"
       d="m 34.709,12.301 c -0.634,0.02 -1.226,0.265 -1.676,0.715 L 20.401,25.648 17.702,22.95 C 30.13,10.543 32.399,10.42 34.709,12.301 Z M 20.912,26.097 33.503,13.588 c 0.695,-0.674 1.799,-0.674 2.494,0 0.347,0.348 0.531,0.818 0.511,1.288 -0.021,0.491 -0.225,0.94 -0.593,1.267 L 22.608,27.876 Z m 0.94,1.901 -3.128,0.797 c -0.061,0.041 -0.122,0.041 -0.184,0 -0.04,-0.061 -0.04,-0.143 0,-0.204 l 1.901,-1.901 z m -7.972,-1.308 3.332,-3.332 2.514,2.576 -5.703,1.226 c -0.123,0.021 -0.245,-0.061 -0.266,-0.184 -0.02,-0.082 0,-0.143 0.062,-0.204 z M 3.557,44.002 c -0.081,-0.02 -0.163,-0.081 -0.184,-0.143 -0.02,-0.082 -0.02,-0.163 0,-0.225 l 2.678,-2.698 3.475,3.455 z m 6.868,-3.577 v 0 c -0.265,0.143 -0.408,0.43 -0.347,0.716 l 0.572,2.453 c 0.041,0.163 -0.041,0.327 -0.163,0.408 -0.123,0.103 -0.307,0.103 -0.409,0 l -3.475,-3.577 10.67,-10.689 5.172,-1.104 2.473,2.473 c -4.415,3.679 -9.28,6.806 -14.472,9.28 v 0.04 z m 20.03,-14.704 c -1.56,1.636 -3.286,3.313 -5.026,4.975 L 23.058,28.325 36.365,16.613 c 0.122,-0.102 0.245,-0.224 0.347,-0.368 -0.293,2.599 -2.888,5.942 -6.257,9.476 z M 35.813,12.362 C 33.83,10.298 33.912,7.027 35.976,5.045 37.857,3.246 40.76,3.123 42.783,4.758 l -4.579,4.559 c -0.122,0.143 -0.122,0.347 0,0.49 l 3.557,3.536 c -2.003,0.981 -4.415,0.572 -5.969,-1.022 z m 7.297,0 c -0.245,0.225 -0.49,0.45 -0.777,0.634 L 38.92,9.582 43.274,5.229 c 1.88,2.023 1.819,5.171 -0.164,7.133 z M 5.365,35.69 v 0 C 4.43,36.275 2.955,35.612 2.074,34.21 1.27,32.93 0,28.51 0,24 0,17.64 2.53,11.53 7.03,7.03 11.53,2.53 17.64,0 24,0 c 3.06,0 6.09,0.58 6.137,0.599 1.536,0.619 2.451,1.952 2.043,2.976 v 0 C 31.772,4.599 30.378,5.004 29.07,4.48 29.07,4.48 26.55,4 24,4 18.7,4 13.61,6.11 9.86,9.86 6.11,13.61 4,18.7 4,24 c 0,3.76 1.06,7.44 1.466,8.088 0.88,1.403 0.834,3.017 -0.101,3.602 z m 39.47,-18.755 v 0 c 1.046,-0.356 2.271,0.471 2.735,1.845 0,0 0.43,2.6 0.43,5.22 0,6.36 -2.53,12.47 -7.03,16.97 C 36.47,45.47 30.36,48 24,48 20.55,48 17.14,47.26 15.827,46.656 14.824,46.195 14.382,45.007 14.84,44.005 v 0 C 15.298,43.003 16.485,42.562 17.49,43.02 18.28,43.38 21.13,44 24,44 29.3,44 34.39,41.89 38.14,38.14 41.89,34.39 44,29.3 44,24 c 0,-2.18 -0.35,-4.35 -0.35,-4.35 -0.392,-1.142 0.139,-2.359 1.185,-2.715 z"
       inkscape:connector-curvature="0"
       style="fill:url(#_lgradient_4);fill-rule:evenodd" />
  </g>
</svg>

<?xml version="1.0" encoding="UTF-8" standalone="no"?>
<!-- Generator: Gravit.io -->
<svg xmlns="http://www.w3.org/2000/svg" xmlns:xlink="http://www.w3.org/1999/xlink" style="isolation:isolate" viewBox="0 0 48 48" width="48pt" height="48pt"><linearGradient id="_lgradient_4" x1="0" y1="0.5" x2="1" y2="0.5" gradientTransform="matrix(48,0,0,48,0,0)" gradientUnits="userSpaceOnUse"><stop offset="0%" stop-opacity="1" style="stop-color:rgb(255,224,49)"/><stop offset="98.69565217391305%" stop-opacity="1" style="stop-color:rgb(252,82,82)"/></linearGradient><path d=" M 34.709 12.301 C 34.075 12.321 33.483 12.566 33.033 13.016 L 20.401 25.648 L 17.702 22.95 C 30.13 10.543 32.399 10.42 34.709 12.301 L 34.709 12.301 L 34.709 12.301 Z  M 20.912 26.097 L 33.503 13.588 C 34.198 12.914 35.302 12.914 35.997 13.588 C 36.344 13.936 36.528 14.406 36.508 14.876 C 36.487 15.367 36.283 15.816 35.915 16.143 L 22.608 27.876 L 20.912 26.097 L 20.912 26.097 L 20.912 26.097 Z  M 21.852 27.998 L 18.724 28.795 C 18.663 28.836 18.602 28.836 18.54 28.795 C 18.5 28.734 18.5 28.652 18.54 28.591 L 20.441 26.69 L 21.852 27.998 L 21.852 27.998 L 21.852 27.998 Z  M 13.88 26.69 L 17.212 23.358 L 19.726 25.934 L 14.023 27.16 C 13.9 27.181 13.778 27.099 13.757 26.976 C 13.737 26.894 13.757 26.833 13.819 26.772 L 13.88 26.69 L 13.88 26.69 L 13.88 26.69 Z  M 3.557 44.002 C 3.476 43.982 3.394 43.921 3.373 43.859 C 3.353 43.777 3.353 43.696 3.373 43.634 L 6.051 40.936 L 9.526 44.391 L 3.557 44.002 L 3.557 44.002 L 3.557 44.002 Z  M 10.425 40.425 L 10.425 40.425 C 10.16 40.568 10.017 40.855 10.078 41.141 L 10.65 43.594 C 10.691 43.757 10.609 43.921 10.487 44.002 C 10.364 44.105 10.18 44.105 10.078 44.002 L 6.603 40.425 L 17.273 29.736 L 22.445 28.632 L 24.918 31.105 C 20.503 34.784 15.638 37.911 10.446 40.385 L 10.446 40.425 L 10.425 40.425 L 10.425 40.425 L 10.425 40.425 L 10.425 40.425 Z  M 30.455 25.721 C 28.895 27.357 27.169 29.034 25.429 30.696 L 23.058 28.325 L 36.365 16.613 C 36.487 16.511 36.61 16.389 36.712 16.245 C 36.419 18.844 33.824 22.187 30.455 25.721 L 30.455 25.721 L 30.455 25.721 Z  M 35.813 12.362 C 33.83 10.298 33.912 7.027 35.976 5.045 C 37.857 3.246 40.76 3.123 42.783 4.758 L 38.204 9.317 C 38.082 9.46 38.082 9.664 38.204 9.807 L 41.761 13.343 C 39.758 14.324 37.346 13.915 35.792 12.321 L 35.813 12.362 L 35.813 12.362 L 35.813 12.362 Z  M 43.11 12.362 C 42.865 12.587 42.62 12.812 42.333 12.996 L 38.92 9.582 L 43.274 5.229 C 45.154 7.252 45.093 10.4 43.11 12.362 L 43.11 12.362 L 43.11 12.362 Z  M 5.365 35.69 L 5.365 35.69 C 4.43 36.275 2.955 35.612 2.074 34.21 C 1.27 32.93 0 28.51 0 24 C 0 17.64 2.53 11.53 7.03 7.03 C 11.53 2.53 17.64 0 24 0 C 27.06 0 30.09 0.58 30.137 0.599 C 31.673 1.218 32.588 2.551 32.18 3.575 L 32.18 3.575 C 31.772 4.599 30.378 5.004 29.07 4.48 C 29.07 4.48 26.55 4 24 4 C 18.7 4 13.61 6.11 9.86 9.86 C 6.11 13.61 4 18.7 4 24 C 4 27.76 5.06 31.44 5.466 32.088 C 6.346 33.491 6.3 35.105 5.365 35.69 L 5.365 35.69 Z  M 44.835 16.935 L 44.835 16.935 C 45.881 16.579 47.106 17.406 47.57 18.78 C 47.57 18.78 48 21.38 48 24 C 48 30.36 45.47 36.47 40.97 40.97 C 36.47 45.47 30.36 48 24 48 C 20.55 48 17.14 47.26 15.827 46.656 C 14.824 46.195 14.382 45.007 14.84 44.005 L 14.84 44.005 C 15.298 43.003 16.485 42.562 17.49 43.02 C 18.28 43.38 21.13 44 24 44 C 29.3 44 34.39 41.89 38.14 38.14 C 41.89 34.39 44 29.3 44 24 C 44 21.82 43.65 19.65 43.65 19.65 C 43.258 18.508 43.789 17.291 44.835 16.935 Z " fill-rule="evenodd" fill="url(#_lgradient_4)"/></svg>
